src/svg/alphabet/Adieresis-196.svg

<?xml version="1.0" standalone="no"?>
<!DOCTYPE svg PUBLIC "-//W3C//DTD SVG 1.1//EN" "http://www.w3.org/Graphics/SVG/1.1/DTD/svg11.dtd" >
<svg xmlns="http://www.w3.org/2000/svg" xmlns:xlink="http://www.w3.org/1999/xlink" version="1.1" viewBox="-10 0 564 1000">
   <path fill="currentColor"
d="M218 -56c15 0 27 12 27 27s-12 27 -27 27s-27 -12 -27 -27s12 -27 27 -27zM338 -56c15 0 27 12 27 27s-12 27 -27 27s-27 -12 -27 -27s12 -27 27 -27zM140 518l-83 247h-35l234 -688h44l232 688h-36l-83 -247h-273zM277 111l-126 375h252z" />
</svg>

<svg xmlns="http://www.w3.org/2000/svg" viewBox="-10 0 564 1000"><path fill="currentColor" d="M218-56c15 0 27 12 27 27S233-2 218-2s-27-12-27-27 12-27 27-27zm120 0c15 0 27 12 27 27S353-2 338-2s-27-12-27-27 12-27 27-27zM140 518 57 765H22L256 77h44l232 688h-36l-83-247H140zm137-407L151 486h252z"/></svg>
